X:9
T:Rood House Rant. HA.010
T:Reed House Rant,aka. HA.010
T:Cheshire Round,aka. HA.010
M:6/4
L:1/4
Q:3/4=70
C:Reed….
S:Henry Atkinson’s original MS,Hartburn,N’umberland,1694.
R:.Rant
O:England
A:Hartburn,Northumberland
N:I may have it wrong as “Rood” not “Reed”, but that’s what it looks like
N:to me.Editorially not a disaster, and a well enough known tune, so I
N:let it stand for you to work on the interesting bits toward the end.
N:Aka.Old Lancashire Hp..Appears as”Cheshire Round a jig divided 12 ways”
N:in Apollo’s
N:Banquet,1693..CGP
H:1/4
Z:vmp.Chris Partington.Jan.2004
K:D
“_As Writ, but should be in 3/2″BAG F>ED|\
fede2E|BAG F>ED|fe(d/c/) d2D2||
BAG F>ED|(a/g/)ae2E|BAG FED|fe(d/c/)d2D||
BAG AD2|BAG cE2|BAG (F/G/)A|Bcd (c/d/)e|d2D|]

